assets/logos/CACCOVetor.svg

<svg xmlns="http://www.w3.org/2000/svg" width="509" height="470" fill="none"><path fill="#fff" stroke="#fff" d="M436.5 465.5H425V401h13l29.5 44 29-44h12v64.5h-11l-1-44-22.5 35h-14.5l-23-35v44Z"/><path fill="#fff" d="m242.626 228-76 130.5h151l-75-130.5Z"/><path fill="#fff" stroke="#fff" d="m135.626 465-17-29.5-18.5 29.5-12.5-.5 24-40.5-8.5-14-5 7.5h-5.5l-2-2.5v-3l7.5-12h12l33 56.5 6.5-4 4.5 3v5l-7 4.5h-11.5Zm106.5-272-96 165.5h-69.5l130.5-227.5-45-78-28.5 48.5-32-3.5-12-25 41-72h66.5l177.5 312.5 39.5-23.5 25 13.5v31l-39 24h-62.5l-95.5-165.5Z"/><path stroke="#fff" stroke-width="12" d="M323.126 446.685c-17.5 26.999-52 9-54-7.5-2-31.6 20.333-35.167 31.5-34 7.5.783 20 7.5 22.5 14m-84 27.5c-17.5 26.999-52 9-54-7.5-2-31.6 20.333-35.167 31.5-34 7.5.783 20 7.5 22.5 14"/><circle cx="375.5" cy="432.5" r="28.5" stroke="#fff" stroke-width="12"/><path stroke="#fff" stroke-width="12" d="M60.126 446.685c-17.5 26.999-52 9-54-7.5-2-31.6 20.333-35.167 31.5-34 7.5.783 20 7.5 22.5 14"/></svg>

<svg width="509" height="470" viewBox="0 0 509 470" fill="none" xmlns="http://www.w3.org/2000/svg">
<path d="M436.5 465.5H425V401H438L467.5 445L496.5 401H508.5V465.5H497.5L496.5 421.5L474 456.5H459.5L436.5 421.5V465.5Z" fill="white" stroke="white"/>
<path d="M242.626 228L166.626 358.5H317.626L242.626 228Z" fill="white"/>
<path d="M135.626 465L118.626 435.5L100.126 465L87.6257 464.5L111.626 424L103.126 410L98.1257 417.5H92.6257L90.6257 415V412L98.1257 400H110.126L143.126 456.5L149.626 452.5L154.126 455.5V460.5L147.126 465H135.626Z" fill="white" stroke="white"/>
<path d="M242.126 193L146.126 358.5H76.6257L207.126 131L162.126 53L133.626 101.5L101.626 98L89.6257 73L130.626 1H197.126L374.626 313.5L414.126 290L439.126 303.5V334.5L400.126 358.5H337.626L242.126 193Z" fill="white" stroke="white"/>
<path d="M323.126 446.685C305.626 473.684 271.126 455.685 269.126 439.185C267.126 407.585 289.459 404.018 300.626 405.185C308.126 405.968 320.626 412.685 323.126 419.185" stroke="white" stroke-width="12"/>
<path d="M239.126 446.685C221.626 473.684 187.126 455.685 185.126 439.185C183.126 407.585 205.459 404.018 216.626 405.185C224.126 405.968 236.626 412.685 239.126 419.185" stroke="white" stroke-width="12"/>
<circle cx="375.5" cy="432.5" r="28.5" stroke="white" stroke-width="12"/>
<path d="M60.126 446.685C42.6259 473.684 8.12585 455.685 6.12587 439.185C4.12587 407.585 26.4593 404.018 37.626 405.185C45.1261 405.968 57.6261 412.685 60.126 419.185" stroke="white" stroke-width="12"/>
</svg>
